X:85
T:Difyrrwch Corbett o Ynysmaengwyn
M:6/8
L:1/8
Q:120
C:Trad. arr J.T.
R:Jig
N:A minor arrangement
K:G
E2 A AGA | FGA E2 D | EFG ABc | d2 B G2 E | E2 A AGA
| FGA E2 D | EFG ABc | dBG A3 :||: A2 B c2 A | cdc B2 A | B2 A B2 A | B
2 c BGE | A2 B c2 A | cdc B2 A | B2 A B2 c | BAG A3
:||
